src/assets/icons/internet-communication,fancy,map.svg

<svg width="48" height="48" viewBox="0 0 48 48" fill="none" xmlns="http://www.w3.org/2000/svg">
<path opacity="0.2" d="M5 12.3611C5 8.8672 5 7.12027 6.05647 5.97209C7.11294 4.82392 8.85384 4.67885 12.3356 4.3887L16.1369 4.07193C16.568 4.036 16.7836 4.01803 16.9994 4.02337C17.2153 4.0287 17.4297 4.05729 17.8585 4.11447L31.1113 5.88151C31.5552 5.94069 31.7771 5.97028 32.0005 5.97496C32.2239 5.97964 32.4469 5.95937 32.8929 5.91883L34.2757 5.79312C38.355 5.42227 40.3947 5.23684 41.6974 6.42644C43 7.61604 43 9.66411 43 13.7603V35.6943C43 39.1639 43 40.8988 41.9537 42.0445C40.9074 43.1902 39.1797 43.3473 35.7243 43.6614L32.8929 43.9188C32.4469 43.9594 32.2239 43.9796 32.0005 43.975C31.7771 43.9703 31.5552 43.9407 31.1113 43.8815L17.8585 42.1145C17.4297 42.0573 17.2153 42.0287 16.9994 42.0234C16.7836 42.018 16.568 42.036 16.1369 42.0719L13.6644 42.278C9.6102 42.6158 7.58312 42.7847 6.29156 41.5963C5 40.4079 5 38.3738 5 34.3056V12.3611Z" fill="black"/>
<path opacity="0.2" fill-rule="evenodd" clip-rule="evenodd" d="M32 5.97501C31.7768 5.97029 31.5548 5.9407 31.1113 5.88156L17.8585 4.11453C17.4301 4.0574 17.2156 4.02881 17 4.02344V18.0001C19.2091 18.0001 21 19.7909 21 22.0001C21 24.2092 19.2091 26.0001 17 26.0001V42.0234C17.2156 42.0288 17.43 42.0574 17.8584 42.1145L17.8585 42.1145L31.1113 43.8816L31.1114 43.8816C31.5549 43.9407 31.7768 43.9703 32 43.975V5.97501Z" fill="black"/>
<path opacity="0.6" fill-rule="evenodd" clip-rule="evenodd" d="M32 43.9751V5.97508C32.0002 5.97508 32.0003 5.97509 32.0005 5.97509C32.2239 5.97977 32.4469 5.9595 32.8929 5.91896L34.2757 5.79324C38.355 5.4224 40.3947 5.23697 41.6974 6.42657C43 7.61616 43 9.66424 43 13.7604V35.6944C43 39.1641 43 40.8989 41.9537 42.0446C40.9074 43.1904 39.1797 43.3474 35.7243 43.6616L32.8929 43.919C32.4469 43.9595 32.2239 43.9798 32.0005 43.9751C32.0003 43.9751 32.0002 43.9751 32 43.9751Z" fill="black"/>
<path opacity="0.6" fill-rule="evenodd" clip-rule="evenodd" d="M17 4.0234C16.9998 4.02339 16.9996 4.02339 16.9994 4.02338C16.7836 4.01805 16.568 4.03602 16.1369 4.07195L12.3356 4.38871C8.85384 4.67886 7.11294 4.82394 6.05647 5.97211C5 7.12028 5 8.86721 5 12.3611V34.3056C5 38.3738 5 40.4079 6.29156 41.5963C7.58312 42.7848 9.6102 42.6158 13.6644 42.278L16.1369 42.0719C16.568 42.036 16.7836 42.0181 16.9994 42.0234C16.9996 42.0234 16.9998 42.0234 17 42.0234V26C14.7909 26 13 24.2092 13 22C13 19.7909 14.7909 18 17 18V4.0234Z" fill="black"/>
<path fill-rule="evenodd" clip-rule="evenodd" d="M16.9996 16C5.23762 16 13.7827 31.2306 16.6027 33.7305C16.8382 33.9393 17.1609 33.9393 17.3964 33.7305C20.2162 31.2305 28.7614 16 16.9996 16ZM20.3778 21.6303C20.3778 23.496 18.8653 25.0084 16.9996 25.0084C15.1339 25.0084 13.6215 23.496 13.6215 21.6303C13.6215 19.7646 15.1339 18.2521 16.9996 18.2521C18.8653 18.2521 20.3778 19.7646 20.3778 21.6303Z" fill="black"/>
</svg>

<svg xmlns="http://www.w3.org/2000/svg" width="48" height="48" fill="none" viewBox="0 0 48 48">
  <path fill="#000" d="M5 12.361c0-3.494 0-5.24 1.056-6.389 1.057-1.148 2.798-1.293 6.28-1.583l3.8-.317c.432-.036.648-.054.863-.049.216.006.43.034.86.091L31.11 5.882c.444.059.666.088.89.093.223.005.446-.016.892-.056l1.383-.126c4.079-.37 6.119-.556 7.421.633C43 7.616 43 9.664 43 13.76v21.934c0 3.47 0 5.205-1.046 6.35-1.047 1.146-2.774 1.303-6.23 1.617l-2.831.258c-.446.04-.67.06-.892.056-.224-.005-.446-.034-.89-.093l-13.253-1.767c-.428-.058-.643-.086-.859-.092-.215-.005-.431.013-.862.049l-2.473.206c-4.054.338-6.08.507-7.372-.682C5 40.408 5 38.374 5 34.306V12.36z" opacity=".2"/>
  <path fill="#000" fill-rule="evenodd" d="M32 5.975c-.223-.005-.445-.034-.889-.093L17.858 4.115c-.428-.058-.642-.086-.858-.092V18a4 4 0 110 8v16.023c.216.006.43.034.858.091l13.253 1.768c.444.059.666.088.889.093v-38z" clip-rule="evenodd" opacity=".2"/>
  <path fill="#000" fill-rule="evenodd" d="M32 43.975v-38c.224.005.447-.015.893-.056l1.383-.126c4.079-.37 6.119-.556 7.421.634C43 7.617 43 9.664 43 13.76v21.934c0 3.47 0 5.205-1.046 6.35-1.047 1.146-2.774 1.303-6.23 1.618l-2.831.257c-.446.04-.67.06-.892.056H32zM17 4.023c-.216-.005-.432.013-.863.049l-3.801.317c-3.482.29-5.223.435-6.28 1.583C5 7.12 5 8.867 5 12.362v21.944c0 4.068 0 6.102 1.292 7.29 1.291 1.189 3.318 1.02 7.372.682l2.473-.206c.431-.036.647-.054.862-.049H17V26a4 4 0 110-8V4.023z" clip-rule="evenodd" opacity=".6"/>
  <path fill="#000" fill-rule="evenodd" d="M17 16c-11.762 0-3.217 15.23-.397 17.73a.581.581 0 00.793 0C20.216 31.23 28.761 16 17 16zm3.378 5.63a3.378 3.378 0 11-6.757 0 3.378 3.378 0 016.757 0z" clip-rule="evenodd"/>
</svg>
